!!!OTL: Ist denn Lieben ein Verbrechen (100), S. 250
!!!id: T0262
**kern
*clefG2
*k[b-]
*F:
{8cc
8cc
=1
4cc
4g
8g
8a
=2
4b-
4a}
=3
{8a
8b-
=4
4a
4g
8d
8e
=5
4f}
4r
=6
{8cc
8cc
=7
4.ff
8ee
8dd
8cc
=8
8ee
8dd
4dd}
=9
{8cc
8a
=10
4.cc
8cc
8dd
8cc
=11
4a}
4r
==
*-
!!!minrhy: 8
!!!meters: 3/4 ]  ZZ[4
!!!cut1: Ist denn Lieben ein Verbrechen (100), S. 250
!!!cut2: Melodie II
!!!reg: Luxemburg
!!!trd: Singendes Volk, Esch-Alzette 1937 posth.
!!!rhy1: XX  X_X_XX  X_X_
!!!rhy2: XX  X_X_XX  X_0_
!!!key: T0262  08  F 3/4 ]  ZZ[4
!!!mod: HEPTATONIK IONISCH]  AMBITUS[10b
!!!kad: 3163
!!!akz: 54_31_+17_53_
!!!fot: 'a__b__c__bs"
!!!for: 'a__a__b__bw_
!!!fok: '\__Vd_^a_\__
!! PHRAS[AUFTAKTIG]
!!!fkt: Liebeslieder
!!!bem: Esch-Alzette, hhh E. Lemmer, vom Vater erlernt
!! THILL, Mathias:
!! PR[40] 2K[2] 2G[6] 3K[6] 3G[4] 4A[0] 4Ü[0] 5A[2] 6K[0] 6G[2]
!! 7K[0] 7G[0] 8A[0] MEHR[0] SI[23] ABS[48] SR[8] SP[15]
!! ST[10] 2k[6] 2g[21] 3k[6] 3g[4] 4d[0] 4ü[0] 5d[0] 6k[0] 6g[0]
!! 7k[0] 7g[0] 8d[0] mehr[0] si[38] dm[-15] sr[27] sp[10]
!! 1F[64] 2F[32] 3F[4] 4F[0] LF[0] 2P[0] 3P[0] 4P[0] TRI[0] DF[3] AB[53]
!! TF[0] U3K[0] U3[0] U4[0] U4Ü[0] U5[0] U6K[0] U6[0] U7K[0] U7[0]
!! N1[8] N2K[0] N2[10] N3K[0] N3[29] N4[18] N4Ü[0] N5[22] N6K[0] N6[10]
!!!n7k: 0] N7[0] O1[2] O2K[0] O2[0] O3K[0] O3[0] HÖ[0
